X: 37832
T: Sonny's Return
R: reel
M: 4/4
K: Adorian
d|eAAB cBAG|EG~G2 AGEd|eAAB cBAB|cdeg aged|
eAAB cBAG|EG~G2 AGEG|cdeg aged|cABG A3:|
B|c2ec Gced|cdeg aged|c2ec Gcec|d2ed cAAB|
c2ec Gced|cdeg aged|eaag ~e3d|cABG A3:|

